svgs/duotone/square-v.svg

<svg xmlns="http://www.w3.org/2000/svg" viewBox="0 0 448 512"><!-- Font Awesome Pro 6.0.0-alpha2 by @fontawesome - https://fontawesome.com License - https://fontawesome.com/license (Commercial License) --><defs><style>.fa-secondary{opacity:.4}</style></defs><path d="M384 32H64C28.654 32 0 60.654 0 96V416C0 451.346 28.654 480 64 480H384C419.348 480 448 451.346 448 416V96C448 60.654 419.348 32 384 32ZM349.469 162.734L245.469 370.734C241.406 378.859 233.094 384 224 384S206.594 378.859 202.531 370.734L98.531 162.734C92.609 150.875 97.406 136.469 109.266 130.531C121.188 124.641 135.547 129.406 141.469 141.266L224 306.328L306.531 141.266C312.469 129.406 326.875 124.641 338.734 130.531C350.594 136.469 355.391 150.875 349.469 162.734Z" class="fa-secondary"/><path d="M338.74 130.531C326.881 124.641 312.474 129.406 306.537 141.266L224.006 306.328L141.474 141.266C135.552 129.406 121.193 124.641 109.271 130.531C97.412 136.469 92.615 150.875 98.537 162.734L202.537 370.734C206.599 378.859 214.912 384 224.006 384S241.412 378.859 245.474 370.734L349.474 162.734C355.396 150.875 350.599 136.469 338.74 130.531Z" class="fa-primary"/></svg>

<svg xmlns="http://www.w3.org/2000/svg" viewBox="0 0 448 512"><!--! Font Awesome Pro 6.3.0 by @fontawesome - https://fontawesome.com License - https://fontawesome.com/license (Commercial License) Copyright 2023 Fonticons, Inc. --><defs><style>.fa-secondary{opacity:.4}</style></defs><path class="fa-primary" d="M338.7 130.5c-11.86-5.891-26.27-1.125-32.2 10.73L224 306.3L141.5 141.3C135.5 129.4 121.2 124.6 109.3 130.5C97.41 136.5 92.61 150.9 98.53 162.7l104 208C206.6 378.9 214.9 384 224 384s17.41-5.141 21.47-13.27l104-208C355.4 150.9 350.6 136.5 338.7 130.5z"/><path class="fa-secondary" d="M384 32H64C28.65 32 0 60.65 0 96v320c0 35.35 28.65 64 64 64h320c35.35 0 64-28.65 64-64V96C448 60.65 419.3 32 384 32zM349.5 162.7l-104 208C241.4 378.9 233.1 384 224 384s-17.41-5.141-21.47-13.27l-104-208C92.61 150.9 97.41 136.5 109.3 130.5c11.92-5.891 26.28-1.125 32.2 10.73L224 306.3l82.53-165.1c5.938-11.86 20.34-16.62 32.2-10.73C350.6 136.5 355.4 150.9 349.5 162.7z"/></svg>
